ChromiumBasedEditors/plugins/ai-agent/src/assets/formats/presentations.svg

<svg width="24" height="24" viewBox="0 0 24 24" fill="none" xmlns="http://www.w3.org/2000/svg">
<path d="M2 4C2 2.89543 2.89543 2 4 2H20C21.1046 2 22 2.89543 22 4V20C22 21.1046 21.1046 22 20 22H4C2.89543 22 2 21.1046 2 20V4Z" fill="#F37C24"/>
<path d="M17.6878 9.11453C17.8191 9.43169 17.9183 9.76034 17.9843 10.0955C18.0918 10.6411 17.6311 11.096 17.0751 11.096H13.9108C13.3547 11.096 12.904 10.6453 12.904 10.0892V6.92491C12.904 6.36886 13.3589 5.90822 13.9045 6.01567C14.2397 6.08168 14.5683 6.18086 14.8855 6.31224C15.5137 6.57245 16.0845 6.95386 16.5653 7.43468C17.0461 7.91549 17.4275 8.48631 17.6878 9.11453Z" fill="white"/>
<path d="M8.30124 8.51672C8.87211 8.13527 9.51023 7.87306 10.1774 7.74166C10.723 7.63421 11.1779 8.09485 11.1779 8.6509L11.178 11.8152C11.178 12.3713 11.6287 12.822 12.1848 12.822L15.3491 12.822C15.9051 12.822 16.3658 13.277 16.2583 13.8225C16.1269 14.4898 15.8647 15.1279 15.4833 15.6988C14.9143 16.5503 14.1056 17.2139 13.1595 17.6058C12.2133 17.9978 11.1722 18.1003 10.1678 17.9005C9.16336 17.7007 8.24074 17.2076 7.51659 16.4834C6.79244 15.7593 6.29929 14.8366 6.0995 13.8322C5.8997 12.8278 6.00224 11.7867 6.39415 10.8405C6.78606 9.89437 7.44973 9.08568 8.30124 8.51672Z" fill="white"/>
</svg>

<svg xmlns="http://www.w3.org/2000/svg" width="24" height="24" fill="none" viewBox="0 0 24 24">
    <path fill="#f36700" d="M2 4a2 2 0 0 1 2-2h16a2 2 0 0 1 2 2v16a2 2 0 0 1-2 2H4a2 2 0 0 1-2-2z"/>
    <path fill="#fff" d="M17.688 9.115q.197.476.296.98c.108.546-.353 1.001-.909 1.001h-3.164c-.556 0-1.007-.45-1.007-1.007V6.925c0-.556.455-1.017 1-.91a5.18 5.18 0 0 1 3.784 3.1"/>
    <path fill="#fff" d="M8.301 8.517a5.2 5.2 0 0 1 1.876-.775c.546-.108 1 .353 1 .909l.001 3.164c0 .556.45 1.007 1.007 1.007h3.164c.556 0 1.017.455.91 1A5.179 5.179 0 1 1 8.3 8.518Z"/>
</svg>
